X:1
T:The Boatie Rows
M:2/4
L:1/8
K:C
 C| D/2- G3/2 GC| FA A3/2 c/2| G/2 E3/2 E3/2 C/2| D3 C| EG G3/2 C/2|\
 FA A3/2 A/2| G3/2 E/2 D3/2- E/2| C3| G| cG G3/2 A/2| cG G3/2 c/2|\
 A3/2 G/2 Ac| d2 c3/2- d/2|e/2-d/2 cd/2-c/2 A| GA/2-B/2 c3/2 A/2| G3/2 E/2 E/2- C3/2|\
 D3 C| E/2- G3/2 G3/2 C/2| FA A3/2 c/2| G/2 E3/2 E3/2 C/2| D3 C| EG G3/2 C/2|\
 FA A3/2 c/2| G3/2 E/2 D3/2- E/2| C3||
